X:1
T:Title
%%score { 1 | 2 }
L:1/8
Q:1/4=81
M:6/8
K:Ab
V:1 bass nm="Grand Piano"
V:2 bass 
V:1
 [A,CE]>[G,CE][F,CE] [E,CE][F,_C=D][K:treble][A,=CE] | [Ec]2 c A2 A/A/ | [FA]>[=EG][FA] [FB][FA]F | %3
w: E.~T.~and~Flora~H.~Cassel * * * * *|||
 G3- G2 D | DCD B,CD |[M:5/8] G2 G G2 |[M:1/8] B/B/ |[M:3/4] B=A B c2 B | [Ge]4- [Ge][Gd]/[Gd]/ | %9
w: ||||||
 c2 cc Bc | d2 d B2 B/B/ | BB BB cd | c4- cE/E/ | E2 E/E/E =DE | [Ec]2 [Ec] [CA]2 [CE] | %15
w: ||||||
 [DE][EG] [GB] [Ac]2 [GB] | [EA]6 | [Ec]3 [Ec]3 | [Ec][Ec] [Ec][Ec] [EB][Ec] | [Ed]2 [Ed] B2 B | %20
w: |||||
 B>B BB AB | [Ec][ce] [ce] [ce]3 | [Ec]3 [Ec]3 | [Ec]>[Ec] [Ec][Ec] [EB][Ec] | [Ed]2 [Ed] B2 B/B/ | %25
w: |||||
 e2 d c2 B | A6 |] %27
w: ||
V:2
 A,,>A,,=A,, A,,A,,A,, | [A,,A,]2 [A,E] [A,CE]2 [A,CE]/[A,CE]/ | [D,D]>[D,D][D,D] [D,D][D,D][A,D] | %3
 [E,B,D]3- [E,B,D]2 [E,G,B,] | [E,G,B,][E,A,][E,B,] [E,G,][E,A,][E,B,] | %5
[M:5/8] [E,B,D]2 [E,B,D] [E,B,D]2 |[M:1/8] [E,G,D]/[E,G,D]/ | %7
[M:3/4] [E,G,D][E,_G,D] [E,=G,D] [E,A,E]2 [E,DE] | [E,B,]4- [E,B,][E,B,]/[E,B,]/ | %9
 [A,E]2 [A,E] [A,E]2 [A,E] | [G,B,E]2 [G,B,E] [E,G,E]2 [E,G,E]/[E,G,E]/ | %11
 [E,G,E][E,G,E] [E,G,E][E,G,E] [E,A,E][E,B,E] | [A,E]4- [A,E][G,B,D]/[G,B,D]/ | %13
 [A,C]2 [A,C]/[A,C]/[A,C] [A,_C][A,=C] | [A,,A,]2 [A,,A,] [A,,A,]2 [A,,A,] | %15
 [E,G,][E,D] [E,D] [E,E]2 [E,D] | [A,C]6 | [A,,A,]3 [A,,A,]3 | %18
 [A,,A,][A,,A,] [A,,A,][A,,A,] [A,,A,][A,,A,] | [B,,G,]2 [B,,G,] [E,G,E]2 [E,G,E] | %20
 [E,G,E]>[E,DE] [E,DE][E,DE] [E,CE][E,G,E] | [A,,A,][A,,A,] [A,,A,] [A,,A,]3 | [A,,A,]3 [A,,A,]3 | %23
 [A,,A,]>[A,,A,] [A,,A,][A,,A,] [A,,A,][A,,A,] | [B,,G,]2 [B,,G,] [E,G,E]2 [E,G,E]/[E,G,E]/ | %25
 [E,CE]2 [E,B,E] [E,A,E]2 [E,DE] | [A,CE]6 |] %27

